packages/icon/src/svg/previous.icon.svg

<svg width="24" height="24" viewBox="0 0 24 24" fill="none" xmlns="http://www.w3.org/2000/svg">
<path fill-rule="evenodd" clip-rule="evenodd" d="M6.5 5H5.5C5.22388 5 5 5.22388 5 5.5V18.5C5 18.7761 5.22388 19 5.5 19H6.5C6.77612 19 7 18.7761 7 18.5V5.5C7 5.22388 6.77612 5 6.5 5ZM7.66284 11.5782L17.2316 5.48901C17.3118 5.43799 17.4049 5.41089 17.5 5.41089C17.7761 5.41089 18 5.63477 18 5.91089V18.0892C18 18.1843 17.9729 18.2775 17.9219 18.3577C17.7736 18.5906 17.4646 18.6593 17.2316 18.511L7.66284 12.4219C7.6012 12.3826 7.54883 12.3302 7.50952 12.2684C7.36121 12.0355 7.42993 11.7264 7.66284 11.5782Z" fill="white"/>
</svg>

<svg aria-label="previous icon" viewBox="0 0 24 24"><path fill-rule="evenodd" clip-rule="evenodd" d="M6.5 5h-1a.5.5 0 00-.5.5v13a.5.5 0 00.5.5h1a.5.5 0 00.5-.5v-13a.5.5 0 00-.5-.5zm1.163 6.578l9.569-6.089a.5.5 0 01.768.422v12.178a.5.5 0 01-.768.422l-9.57-6.09a.5.5 0 010-.843z"/></svg>
